!!!COM: Villard, Paul
!!!CDT: 1899-1986
!!!OTL: National Anthem, Chad
!!!ENC: Davis, Matthew J.
!!Vocal Line Only
**kern
*clefG2
*k[b-e-]
*B-:
*M2/4
=1-
1r
=2
1r
=3
1r
=4
1r
==5
!Chorus
4b-
8.f
16b-
=6
4..cc
16dd
=7
8.cc
16b-
8.cc
16dd
=8
4b-
8f
8r
=9
4b-
8.f
16b-
=10
4.cc
16cc
=11
4dd
8.cc
16b-
=12
4.cc
8r
=13
4ff
8.dd
16cc
=14
4..b-
16b-
=15
8.cc
16b-
8.cc
16dd
=16
4ee
4g
=17
4f
8.b-
16dd
=18
4ff
8.dd
16b-
=19
4cc
8.dd
16cc
=20
2b-
!FINE
==21
1r
=22
1r
=23
!Verse
2b-
=24
4ee-
4gg
=25
[2ff
=26
4ff]
4r
=27
4dd
8.cc
16b-
=28
4cc
4dd
=29
2b-
=30
4f
4r
=31
2dd
=32
4cc
4b-
=33
4cc
8.cc
16dd
=34
4cc
8.dd
16b-
=35
2cc
=36
4r
4b-
=37
4ee-
8.gg
16gg
=38
4ff
4dd
=39
4cc
8.ff
16ff
=40
4ff
8r
8b-
=41
8f
8b-
8cc
8dd
=42
8cc
8cc
8ff
8ff
=43
2ff
=44
2een
=45
2ff
=46
1r
!D. [coda Symbol (m. 5)] al Fine (m. 20)
==|!
*-
